static/assets/images/networks/chiliz.svg

<svg width="256" height="256" viewBox="0 0 256 256" fill="none" xmlns="http://www.w3.org/2000/svg">
<path d="M128 256C198.692 256 256 198.692 256 128C256 57.3075 198.692 0 128 0C57.3076 0 0 57.3075 0 128C0 198.692 57.3076 256 128 256Z" fill="#FF1256"/>
<path d="M89.8387 69.1748L118.784 51.3052C121.331 49.8667 121.331 46.8854 119.494 45.0656L95.3157 21.6842C94.8478 21.2162 94.0678 21.2162 93.5999 21.6842L91.312 23.9893C88.3828 26.9359 88.4002 31.6849 91.3467 34.6141L100.793 43.3324C102.405 44.9269 102.093 47.5961 100.169 48.792L88.8854 55.7076C85.367 57.8741 84.2751 62.5019 86.459 66.0204L88.1575 68.7762C88.5042 69.3482 89.2668 69.5215 89.8387 69.1748Z" fill="white"/>
<path d="M117.785 165.022C120.159 154.743 117.35 143.946 110.244 136.129L91.9589 115.399C81.7849 103.856 84.298 85.9693 97.2626 77.6844L127.179 58.5668C129.102 57.3362 131.633 57.5615 133.314 59.1041C144.251 69.1916 182.33 105.555 180.631 143.114C180.631 143.114 180.683 201.437 123.244 223.259C114.803 226.465 106.258 218.752 108.477 210C116.415 178.559 117.802 165.005 117.802 165.005L117.785 165.022ZM125.271 75.2232C120.695 78.1177 111.839 83.7333 104.282 88.5344C99.2211 91.7409 98.1985 98.6912 102.116 103.232L121.233 125.331C132.187 137.377 136.538 154.016 132.863 169.892L129.657 183.949C128.27 190.05 135.463 194.314 140.212 190.223C160.352 172.839 188.587 131.051 129.692 75.6565C128.495 74.5299 126.675 74.3566 125.271 75.2405V75.2232Z" fill="white"/>
</svg>

<svg xmlns="http://www.w3.org/2000/svg" fill="none" viewBox="0 0 256 256"><path fill="#FF1256" d="M128 256c70.692 0 128-57.308 128-128S198.692 0 128 0 0 57.308 0 128s57.308 128 128 128"/><path fill="#fff" d="m89.839 69.175 28.945-17.87c2.547-1.438 2.547-4.42.71-6.24l-24.178-23.38a1.224 1.224 0 0 0-1.716 0l-2.288 2.304a7.506 7.506 0 0 0 .035 10.625l9.446 8.718c1.612 1.595 1.3 4.264-.624 5.46l-11.284 6.916c-3.518 2.166-4.61 6.794-2.426 10.312l1.698 2.756c.347.572 1.11.746 1.682.399m27.946 95.847a32.18 32.18 0 0 0-7.541-28.893l-18.285-20.73c-10.174-11.543-7.661-29.43 5.304-37.715l29.916-19.117a5.06 5.06 0 0 1 6.135.537c10.937 10.088 49.016 46.451 47.317 84.01 0 0 .052 58.323-57.387 80.145-8.441 3.206-16.986-4.507-14.767-13.259 7.938-31.441 9.325-44.995 9.325-44.995zm7.486-89.799a15016 15016 0 0 0-20.989 13.311c-5.06 3.207-6.084 10.157-2.166 14.698l19.117 22.099a49.59 49.59 0 0 1 11.63 44.561l-3.206 14.057c-1.387 6.101 5.806 10.365 10.555 6.274 20.14-17.384 48.375-59.172-10.52-114.567a3.63 3.63 0 0 0-4.421-.416z"/></svg>
